symbolic/22x22/apps/stretchly.svg

<svg xmlns="http://www.w3.org/2000/svg" width="22" height="22" version="1.1">
 <circle style="opacity:0.2" cx="11" cy="11.5" r="10"/>
 <circle style="fill:#2f6663" cx="11" cy="11" r="10"/>
 <circle style="opacity:0.1" cx="11" cy="11.5" r="8"/>
 <path style="opacity:0.1;fill:#ffffff" d="M 11,1 A 10,10 0 0 0 1,11 10,10 0 0 0 1.01075,11.291 10,10 0 0 1 11,1.5 10,10 0 0 1 20.9895,11.209 10,10 0 0 0 21,11 10,10 0 0 0 11,1 Z"/>
 <path style="fill:#73d216" d="M 6.996094,4.084961 A 8,8 0 0 0 3,11 h 8 z"/>
 <path style="fill:#ffe721" d="m 3,11 a 8,8 0 0 0 3.996094,6.916992 L 11,11 Z"/>
 <path style="fill:#f57900" d="M 11,11 6.996094,17.916992 A 8,8 0 0 0 11,19 8,8 0 0 0 15.003906,17.915039 Z"/>
 <path style="fill:#ef298c" d="m 11,11 4.003906,6.915039 A 8,8 0 0 0 19,11 Z"/>
 <path style="fill:#8c398d" d="M 15.003906,4.083008 11,11 h 8 A 8,8 0 0 0 15.003906,4.083008 Z"/>
 <path style="fill:#0874ff" d="M 11,3 A 8,8 0 0 0 6.9970705,4.084961 L 11,11 15.004883,4.083008 A 8,8 0 0 0 11,3 Z"/>
 <path style="opacity:0.1" d="m 10.984375,6.4609375 c -0.891511,0.001 -1.867995,0.304695 -2.6484375,1.038086 -0.98443,0.9250805 -1.421908,2.0474525 -1.3007815,3.0615235 0.121127,1.014071 0.65536,1.813112 1.181641,2.530274 0.526281,0.717161 1.078447,1.371712 1.415039,1.947265 0.318754,0.545051 0.415983,0.933361 0.336914,1.325195 -0.11321,0.235418 -0.475147,0.557174 -1.0771485,0.787109 -0.632748,0.24168 -1.435389,0.362883 -1.993164,0.357422 C 6.6411365,17.505312 5.799339,17.30237 5.220703,17.071289 l -0.637695,1.59668 a 10,10 0 0 0 0.7324215,0.555664 c 0.506549,0.158601 1.0356655,0.279012 1.5634765,0.284179 0.8300145,0.0081 1.804903,-0.137228 2.726563,-0.489258 0.921659,-0.352029 1.864576,-0.925191 2.267578,-1.985351 a 1.0001,1.0001 0 0 0 0.03418,-0.106445 c 0.277086,-1.08256 -0.07943,-2.095793 -0.548828,-2.898437 C 10.889001,13.225675 10.292637,12.538884 9.829102,11.907227 9.365568,11.27557 9.068652,10.718119 9.021485,10.323242 8.97432,9.928366 9.030885,9.58956 9.705079,8.9560545 c 0.404311,-0.379936 0.792593,-0.4945765 1.28125,-0.495117 0.488657,-5.5e-4 1.064135,0.15729 1.604492,0.397461 1.080714,0.4803415 1.947266,1.2265625 1.947266,1.2265625 L 15.85547,8.580078 c 0,0 -1.037166,-0.9199145 -2.452149,-1.548828 C 12.69583,6.7167935 11.875887,6.459951 10.984375,6.4609375 Z"/>
 <path style="fill:#2f6663" d="M 10.984375,5.9609375 C 10.092863,5.9619239 9.11638,6.264656 8.3359375,6.9980469 7.3515075,7.9231275 6.9140295,9.046476 7.0351562,10.060547 c 0.1211269,1.014071 0.6553597,1.812135 1.1816407,2.529297 0.5262809,0.717161 1.0794251,1.371712 1.4160151,1.947265 0.32001,0.547198 0.399255,0.930824 0.31836,1.324219 -0.112659,0.235486 -0.455807,0.558827 -1.0585939,0.789063 -0.632748,0.241679 -1.4363652,0.362882 -1.9941406,0.357421 -0.2657243,-0.0026 -2.0258151,-0.295318 -2.3769531,-0.435546 l -0.5957032,1.488281 a 10,10 0 0 0 0.6914063,0.632812 c 0.7981586,0.204539 1.662793,0.30859 2.2617187,0.314453 0.8300137,0.0081 1.8049028,-0.136251 2.7265628,-0.488281 0.921659,-0.35203 1.864576,-0.926168 2.267578,-1.986328 a 1.0001,1.0001 0 0 0 0.0332,-0.107422 c 0.277086,-1.08256 -0.07748,-2.095793 -0.546875,-2.898437 C 10.889974,12.724699 10.291657,12.03986 9.828122,11.408203 9.364587,10.776546 9.068648,10.219095 9.021481,9.824219 8.974315,9.429342 9.030881,9.090536 9.705075,8.4570312 c 0.404311,-0.3799361 0.792593,-0.4955531 1.28125,-0.4960937 0.488657,-5.406e-4 1.065112,0.1582667 1.605469,0.3984375 1.080713,0.4803417 1.945312,1.226562 1.945312,1.226563 l 1.31836,-1.5058599 c 0,0 -1.038143,-0.9199148 -2.453125,-1.5488281 C 12.694855,6.2167933 11.875887,5.9599511 10.984375,5.9609375 Z"/>
 <path style="opacity:0.2;fill:#ffffff" d="M 11,3 A 8,8 0 0 0 3,11 8,8 0 0 0 3.0107422,11.290039 8,8 0 0 1 11,3.5 8,8 0 0 1 18.989258,11.209961 8,8 0 0 0 19,11 8,8 0 0 0 11,3 Z"/>
</svg>

<svg xmlns="http://www.w3.org/2000/svg" width="22" height="22"><circle style="opacity:.2" cx="11" cy="11.5" r="10"/><circle style="fill:#2f6663" cx="11" cy="11" r="10"/><circle style="opacity:.1" cx="11" cy="11.5" r="8"/><path style="opacity:.1;fill:#fff" d="M11 1A10 10 0 0 0 1 11a10 10 0 0 0 .01.291A10 10 0 0 1 11 1.5a10 10 0 0 1 9.99 9.709A10 10 0 0 0 21 11 10 10 0 0 0 11 1z"/><path style="fill:#73d216" d="M6.996 4.085A8 8 0 0 0 3 11h8z"/><path style="fill:#ffe721" d="M3 11a8 8 0 0 0 3.996 6.917L11 11z"/><path style="fill:#f57900" d="m11 11-4.004 6.917A8 8 0 0 0 11 19a8 8 0 0 0 4.004-1.085z"/><path style="fill:#ef298c" d="m11 11 4.004 6.915A8 8 0 0 0 19 11z"/><path style="fill:#8c398d" d="M15.004 4.083 11 11h8a8 8 0 0 0-3.996-6.917z"/><path style="fill:#0874ff" d="M11 3a8 8 0 0 0-4.003 1.085L11 11l4.005-6.917A8 8 0 0 0 11 3z"/><path style="opacity:.1" d="M10.984 6.46A3.863 3.863 0 0 0 8.336 7.5c-.984.925-1.422 2.047-1.3 3.062.12 1.014.655 1.813 1.18 2.53.527.717 1.08 1.372 1.416 1.947.319.545.416.933.337 1.325-.113.236-.475.557-1.077.787a5.974 5.974 0 0 1-1.994.358c-.257-.003-1.099-.206-1.677-.437l-.638 1.597a10 10 0 0 0 .732.556c.507.158 1.036.279 1.564.284a7.612 7.612 0 0 0 2.726-.49c.922-.351 1.865-.925 2.268-1.985a1 1 0 0 0 .034-.106c.277-1.083-.08-2.096-.549-2.899-.469-.802-1.065-1.49-1.529-2.12-.463-.632-.76-1.19-.808-1.585-.047-.395.01-.733.684-1.367.404-.38.793-.495 1.281-.495.489 0 1.064.157 1.605.397 1.08.48 1.947 1.227 1.947 1.227l1.317-1.505s-1.037-.92-2.452-1.549c-.707-.314-1.527-.571-2.419-.57z"/><path style="fill:#2f6663" d="M10.984 5.96a3.861 3.861 0 0 0-2.648 1.038c-.984.925-1.422 2.048-1.3 3.063.12 1.014.655 1.812 1.18 2.529.527.717 1.08 1.372 1.417 1.947.32.547.4.93.318 1.324-.112.236-.456.56-1.058.79a5.98 5.98 0 0 1-1.995.357c-.265-.003-2.025-.296-2.377-.436l-.595 1.489a10 10 0 0 0 .691.632 10.24 10.24 0 0 0 2.262.315 7.61 7.61 0 0 0 2.726-.488c.922-.352 1.865-.927 2.268-1.987a1 1 0 0 0 .033-.107c.277-1.083-.077-2.096-.547-2.899-.469-.802-1.067-1.487-1.53-2.119-.464-.631-.76-1.189-.808-1.584-.047-.395.01-.733.684-1.367.404-.38.793-.496 1.281-.496.489 0 1.065.158 1.606.398a8.897 8.897 0 0 1 1.945 1.227l1.318-1.506s-1.038-.92-2.453-1.549c-.707-.314-1.526-.571-2.418-.57z"/><path style="opacity:.2;fill:#fff" d="M11 3a8 8 0 0 0-8 8 8 8 0 0 0 .01.29A8 8 0 0 1 11 3.5a8 8 0 0 1 7.99 7.71A8 8 0 0 0 19 11a8 8 0 0 0-8-8z"/></svg>
